X:1
T:Fantasia (7)
T:Fantasia (7)
T:19. August 1680 from "Fantasias for Strings", Book 1 
T:Henry Purcell (1659-1695)
T:Z. 742
C:Henry Purcell (1659-1695)
Z:Z. 742
%%score [ 1 2 3 4 ]
L:1/8
Q:1/2=63
M:4/2
K:G
V:1 treble nm="Diskantgambe"
V:2 treble nm="Altgambe"
V:3 alto nm="Tenorgambe"
V:4 bass nm="Gambe"
V:1
 z16 |!f! A6 A2 B2 ^c2 d4- | d2 d2 ^c4 d6 d2 | e2 f2 g6 g2 f4 | g4 d4 z8 | d6 d2 c8 | B8 A8- | %7
 A2 D2 G8 F4 | G4 g6 g2 =f2 e2 | d4 B4 c6 c2 | d2 e2 =f6 f2 e4 | d6 c2 _BA G2 c4- | %12
 c2 c2 d2 e2 =f4 f4- | f2 !courtesy!=f2 e2 d2 ^c4 d4- | d4 ^c4 d6 d2 | !courtesy!=c4 B4 A6 A2 | %16
 B8 c8 | d8- d2 e2 c2 d2 | B6 B2 ^c2 ^d2 e4- | e2 e2 ^d4 e2 f2 g2 e2 | ^c8 d8 | e6 e2 f2 g2 a4- | %22
 a2 a2 g2 f2 e2 f2 g4- | g2 g2 f4 g8 |[Q:1/4=42]"^Drag\n (Schleppend)\n" z2!p! d2 d2 d2 =f8- | %25
 f2 _B2 B2 B2 _d4 c4 | =F2 F2 _B2 _AG A4 F4 | G2 G2 G2 G2 _B4 A2 A2 | c4 =B2 B2 ^c6 c2 | %29
 ^c2 c2 d6 !courtesy!=cB c4- | c2 _BA B4 A4 z2[Q:1/4=189]"^Brisk\n"!f! d2 | %31
"^(Lebhaft)" BdGB ABcA Bc d4 ^c2 | d6 d2 !courtesy!=c4 B4 | A4 z2 d2 ^cABc defd | %34
 efge a4 z2 a2 =fadf | e^f^ge fg a4 g2 a4 | z4 z2 e2 dBcd e=fge | =f6 f2 e4 d4 | %38
 c2 c2 BdAc BcdB cBAG | ^F^DEF GAB^c !courtesy!=d2 d2 cfBe | ^AB^cA B6 B2 !courtesy!=A4- | %41
 A4 G6 G2 FADF | E8 z2 d2 cedc | BAGB A4 z2 c2 dBcd | efge =f4 ^f2 g4 f2 | g4 =f6 ed e4 | %46
 =fadf B3 B c3 e Ac^FA | D2 G2 FDEF GABG A2 d2 | BdGB EFGE FGAF G4- | %49
[Q:3/4=63] G2[Q:3/4=59]"^.5" A2[Q:3/4=57]"^.1" F4[Q:3/4=53] !fermata!G8[Q:3/4=60]"^.9"[Q:3/4=58]"^.2"[Q:3/4=54] |] %50
V:2
 z16 | z16 |!f! G6 G2 F2 E2 D4- | D2 D2 C2 B,2 A,8 | G6 G2 A2 B2 c4- | c2 c2 B4 A4 A4- | %6
 A2 A2 G2 F2 E6 E2 | F4 G4 A8 | z4 e6 e2 d2 c2 | B4 G6 G2 =F2 E2 | D6 D2 E2 =F2 G4- | %11
 G2 G2 !courtesy!=F4 _B6 B2 | A2 G2 =F6 F2 G2 A2 | _B6 B2 A2 G2 =F4 | E4 A6 A2 G2 ^F2 | %15
 E2 D4 D2 E4 =F4 | G12 E4 | =F8 E4 E4- | E2 E2 ^F2 ^G2 A2 B2 c2 A2 | F6 F2 ^G2 ^A2 B4- | %20
 B4 ^A4 B4 d4- | d2 d2 c2 B2 A6 A2 | B2 c2 d6 d2 c2 B2 | A8 B8 | z2!p! _B2 B2 B2 B4 _A4 | %25
 G6 _E2 E2 E2 !courtesy!=F2 C2 | D4 _E8 D4 | _E2 E2 E2 E2 G4 C2 _B,2 | A,4 D4 z4 z2 =E2 | %29
 E2 E2 A6 G2 F2 E2 | D8 D8 | z2!f! G2 FDEF GABG A2 E2 | A4 G4 AGFE D4 | z2 d2 BdGB EFGE FGAF | %34
 GAB^c dDFG A4 z2 A2 | ^GBEG ABcA e6 e2 | d4 c4 B4 c4- | c2 BA B4 c4 G4- | G=F E2 D4- D4 z4 | %39
 z4 z2 E2 DB,^CD EFGE | F6 F2 E^CDE FGAF | B6 B2 EG^CE A,4 | z2 A2 GBAG FEDF E4 | %43
 D2 z G, DB,CD E=FGE F4 | G3 G A6 _B2 c4 | !courtesy!=BdG_B ABcA G8 | =F2 FA D3 D EG C3 EDC | %47
 B,A,G,B, A,4 G,2 G2 FADF | E2 D3 DCB, A,AFA D3 E | =F2 E2 D3 C !fermata!B,8 |] %50
V:3
!f! D6 D2 E2 F2 G4- | G2 G2 F4 E4 A,2 B,2 | C2 B,2 A,2 G,2 D4 G4- | G2 B2 A2 G2 D6 D2 | %4
 C4 B,4 A,8 | G,4 G6 G2 F2 E2 | D4 d6 d2 c4- | c4 B4 A4 D,4 | E,8 =F,8 | G,6 G,2 A,2 B,2 C4- | %10
 C4 B,4 C6 C2 | _B,4 A,4 G,8 | =F,4 A,6 A,2 _B,2 C2 | D4 G2 =F2 E2 A4 A2 | G2 =F2 E4 ^F2 ^F,4 F,2 | %15
 G,2 A,2 B,4 C6 C2 | D6 D2 E2 =F2 G4 | A8 B4 A4- | A4 z4 E6 E2 | D2 C2 B,4 B6 B2 | A2 G2 F4 F8 | %21
 G6 G2 A2 B2 c4- | c2 c2 B2 A2 G6 G2 | =F2 E2 D4 D8 | z2!p! D2 D2 D2 _B,6 B,2 | %25
 _B,2 B,2 _E2 G,2 B,4 _A,4- | _A,4 G,2 _E,2 !courtesy!=F,4 z2 _B,2 | %27
 !courtesy!_B,2 B,2 C2 C2 C2 C2 _E4 | D2 D2 !courtesy!=F4 =E2 E2 G4- | G4 F4 E2 E2 A4- | %30
 A4 G6 FE F4 | z16 | z2!f! D2 B,DG,B, A,B,CA, B,2 G2 | FDEF GABG A6 A2 | G4 F4 E4 D4- | %35
 D2 D2 CEA,C B,CDB, CDEF | G6 G2 =F4 E4 | D6 D2 CA,B,C DE=FD | E!courtesy!=F G4 F2 G3 G ^F2 E2 | %39
 ^DB,^CD EFGE F6 E2 | D2 ^C2 D4 CFB,D F,2 F2- | F2 F2 E2 D2 ^C4 D4- | %42
 D2 ^CB, C4 D!courtesy!=CB,A, G,2 A,2 | B,2 C2 D4 z2 G2 =FAGF | EDCE D6 D2 CA,B,C | %45
 D=FED C3 C _B,8 | A,4 G,4 G,2 A,2 D,4 | z4 D3 D C2 B,2 A,4 | G,A, B,3 G, C3 A, D2 B,DG,B, | %49
 A,B,CB, A,4 !fermata!G,8 |] %50
V:4
 z4!f! G,6 G,2 F,2 E,2 | D,6 D,2 G,4 F,4 | E,8 B,4 B,,4 | C,8 D,6 D,2 | E,2 F,2 G,6 G,2 F,4 | %5
 G,8 A,,6 A,,2 | B,,8 C,8 | D,12 D4- | D2 D2 C2 B,2 A,4 =F4- | %9
 F2 !courtesy!=F2 E2 D2 C2 B,2 A,2 E,2 | G,4 G,,4 C,6 C,2 | D,2 E,2 =F,6 F,2 E,4 | %12
 =F,6 E,2 D,6 C,2 | _B,,4 G,,4 A,,8- | A,,8 D,6 D,2 | E,2 F,2 G,8 =F,4- | %16
 F,2 !courtesy!=F,2 E,2 D,2 C,4 C4- | C2 C2 B,2 A,2 ^G,4 A,4 | E,8 A,,8 | B,,8 E,,8 | %20
 F,,8 B,,4 B,4- | B,2 B,2 A,2 G,2 F,6 F,2 | G,2 A,2 B,2 B,,2 C,2 D,2 E,2 C,2 | D,8 G,,8 | %24
!p! G,8 D,2 D,2 D,2 D,2 | _E,6 E,2 G,,4 _A,,4 | _B,,8- B,,2 B,,2 B,,2 B,,2 | %27
 !courtesy!_E,8 =E,4 !courtesy!=F,4 | ^F,4 G,4 A,2 A,2 A,2 A,2 | B,4 F,2 G,2 A,4 A,,2 G,,2 | %30
 F,,4 G,,4 D,8 | z8 z4 z2!f! A,2 | F,A,D,F, E,F,G,E, F,G,A,F, G,A,B,C | D4 G,6 G,2 F,4 | %34
 E,4 D,2 D,2 ^C,A,,B,,C, D,E,=F,D, | E,8 E,,2 E,2 C,E,A,,C, | B,,C,D,B,, C,D,E,=F, G,4 C,4 | %37
 G,,8 z2 C,2 B,,G,,A,,B,, | C,D,E,C, D,2 D,,2 G,,E,,F,,G,, A,,B,,C,A,, | B,,4 B,6 B,2 A,2 G,2 | %40
 F,2 F,2 D,F,B,,D, F,,6 F,,2 | G,,8 A,,8- | A,,8 D,3 D, E,2 F,2 | G,2 G,2 =F,A,G,F, E,D,C,E, D,4 | %44
 C,6 C,2 _B,,4 A,,4 | G,,2 G,,2 A,,=F,,G,,A,, _B,,C,D,B,, C,4 | %46
 =F,,2 =F,2 G,B,E,G, C,E,A,,C, ^F,,4 | G,,A,,B,,C, D,3 D, E,4 F,4 | G,2 G,,2 C,4 D,8 | %49
 D,,8 !fermata!G,,8 |] %50

